static/images/skills/aws.svg

<svg xmlns="http://www.w3.org/2000/svg" xml:space="preserve" style="fill-rule:evenodd;clip-rule:evenodd;stroke-linejoin:round;stroke-miterlimit:2" viewBox="0 0 1200 900"><path d="M0 0h1200v900H0z" style="fill:#5a749b"/><path d="M36.379 53.64c0 1.56.168 2.825.465 3.75.336.926.758 1.938 1.347 3.032.207.336.293.672.293.969 0 .418-.254.84-.8 1.261l-2.653 1.77c-.379.25-.758.379-1.093.379-.422 0-.844-.211-1.266-.59a13.3 13.3 0 0 1-1.516-1.98 34 34 0 0 1-1.304-2.485q-4.924 5.813-12.38 5.813c-3.535 0-6.355-1.012-8.421-3.032-2.063-2.023-3.114-4.718-3.114-8.086 0-3.578 1.262-6.484 3.833-8.671 2.566-2.192 5.976-3.286 10.316-3.286 1.43 0 2.902.125 4.46.336 1.56.211 3.161.547 4.845.926v-3.074c0-3.2-.676-5.43-1.98-6.734C26.061 32.633 23.788 32 20.546 32c-1.473 0-2.988.168-4.547.547a33.5 33.5 0 0 0-4.547 1.433c-.676.293-1.18.461-1.473.547-.296.082-.507.125-.675.125-.59 0-.883-.422-.883-1.304v-2.063c0-.676.082-1.18.293-1.476.21-.293.59-.586 1.18-.883q2.21-1.137 5.304-1.895c2.063-.547 4.254-.8 6.57-.8 5.008 0 8.672 1.136 11.032 3.41 2.316 2.273 3.492 5.726 3.492 10.359v13.64zm-17.094 6.403c1.387 0 2.82-.254 4.336-.758 1.516-.508 2.863-1.433 4-2.695.672-.8 1.18-1.684 1.43-2.695.254-1.012.422-2.23.422-3.665v-1.765a35 35 0 0 0-3.871-.719 32 32 0 0 0-3.961-.25c-2.82 0-4.883.547-6.274 1.684-1.387 1.136-2.062 2.734-2.062 4.84 0 1.98.504 3.453 1.558 4.464 1.012 1.051 2.485 1.559 4.422 1.559m33.809 4.547c-.758 0-1.262-.125-1.598-.422-.34-.254-.633-.84-.887-1.64L40.715 29.98c-.25-.843-.38-1.39-.38-1.687 0-.672.337-1.05 1.013-1.05h4.125c.8 0 1.347.124 1.644.421.336.25.59.84.84 1.64l7.074 27.876 6.57-27.875c.208-.84.462-1.39.797-1.64.34-.255.93-.423 1.688-.423h3.367c.8 0 1.348.125 1.684.422.336.25.633.84.8 1.64l6.653 28.212 7.285-28.211c.25-.84.547-1.39.84-1.64.336-.255.887-.423 1.644-.423h3.914c.676 0 1.055.336 1.055 1.051 0 .21-.043.422-.086.676s-.125.59-.293 1.05L80.801 62.57c-.254.84-.547 1.387-.887 1.64-.336.255-.883.423-1.598.423h-3.62c-.801 0-1.348-.13-1.684-.422-.34-.297-.633-.844-.801-1.684l-6.527-27.16-6.485 27.117c-.21.844-.46 1.391-.8 1.684-.337.297-.926.422-1.684.422zm54.105 1.137c-2.187 0-4.379-.254-6.484-.758s-3.746-1.055-4.84-1.684c-.676-.379-1.137-.8-1.305-1.18a2.9 2.9 0 0 1-.254-1.18v-2.148c0-.882.336-1.304.97-1.304q.376 0 .757.129c.25.082.629.25 1.05.418a23 23 0 0 0 4.634 1.476c1.683.336 3.324.504 5.011.504 2.653 0 4.715-.465 6.145-1.39 1.433-.926 2.191-2.274 2.191-4 0-1.18-.379-2.145-1.136-2.946-.758-.8-2.192-1.516-4.254-2.191l-6.106-1.895c-3.074-.969-5.348-2.398-6.734-4.293-1.39-1.855-2.106-3.918-2.106-6.105q0-2.655 1.137-4.676a10.8 10.8 0 0 1 3.031-3.453c1.262-.965 2.696-1.684 4.38-2.188s3.452-.715 5.304-.715c.926 0 1.894.043 2.82.168.969.125 1.852.293 2.738.461.84.211 1.641.422 2.399.676q1.137.379 1.77.758c.59.336 1.011.672 1.261 1.05q.38.509.379 1.391v1.98c0 .884-.336 1.348-.969 1.348-.336 0-.883-.171-1.597-.507q-3.604-1.641-8.086-1.641c-2.399 0-4.293.379-5.598 1.18-1.309.797-1.98 2.02-1.98 3.746 0 1.18.421 2.191 1.261 2.988.844.8 2.403 1.602 4.633 2.316l5.98 1.895c3.032.969 5.22 2.316 6.524 4.043s1.938 3.707 1.938 5.895c0 1.812-.38 3.453-1.094 4.882-.758 1.434-1.77 2.696-3.074 3.707-1.305 1.051-2.864 1.809-4.672 2.36-1.895.586-3.875.883-6.024.883" style="fill:#252f3e;fill-rule:nonzero" transform="translate(296.675 146.677)scale(4.73941)"/><path d="M118 73.348c-4.432.063-9.664 1.052-13.621 3.832-1.223.883-1.012 2.062.336 1.894 4.508-.547 14.44-1.726 16.21.547 1.77 2.23-1.976 11.62-3.663 15.79-.504 1.26.59 1.769 1.726.8 7.41-6.231 9.348-19.242 7.832-21.137-.757-.925-4.388-1.79-8.82-1.726M1.63 75.859c-.927.116-1.347 1.236-.368 2.121 16.508 14.902 38.359 23.872 62.613 23.872 17.305 0 37.43-5.43 51.281-15.66 2.273-1.688.297-4.254-2.02-3.204-15.534 6.57-32.421 9.77-47.788 9.77-22.778 0-44.8-6.273-62.653-16.633-.39-.231-.755-.304-1.064-.266z" style="fill:#f90;fill-rule:nonzero" transform="translate(296.675 146.677)scale(4.73941)"/></svg>

<?xml version="1.0" encoding="UTF-8" standalone="no"?>
<!DOCTYPE svg PUBLIC "-//W3C//DTD SVG 1.1//EN" "http://www.w3.org/Graphics/SVG/1.1/DTD/svg11.dtd">
<svg width="100%" height="100%" viewBox="0 0 1200 900" version="1.1" xmlns="http://www.w3.org/2000/svg" xmlns:xlink="http://www.w3.org/1999/xlink" xml:space="preserve" xmlns:serif="http://www.serif.com/" style="fill-rule:evenodd;clip-rule:evenodd;stroke-linejoin:round;stroke-miterlimit:2;">
    <rect x="0" y="0" width="1200" height="900" style="fill:rgb(90,116,155);"/>
    <g transform="matrix(4.73941,0,0,4.73941,296.675,146.677)">
        <path d="M36.379,53.64C36.379,55.2 36.547,56.465 36.844,57.39C37.18,58.316 37.602,59.328 38.191,60.422C38.398,60.758 38.484,61.094 38.484,61.391C38.484,61.809 38.23,62.231 37.684,62.652L35.031,64.422C34.652,64.672 34.273,64.801 33.938,64.801C33.516,64.801 33.094,64.59 32.672,64.211C32.106,63.6 31.598,62.937 31.156,62.231C30.687,61.421 30.252,60.592 29.852,59.746C26.57,63.621 22.442,65.559 17.472,65.559C13.937,65.559 11.117,64.547 9.051,62.527C6.988,60.504 5.937,57.809 5.937,54.441C5.937,50.863 7.199,47.957 9.77,45.77C12.336,43.578 15.746,42.484 20.086,42.484C21.516,42.484 22.988,42.609 24.546,42.82C26.106,43.031 27.707,43.367 29.391,43.746L29.391,40.672C29.391,37.472 28.715,35.242 27.411,33.938C26.061,32.633 23.788,32 20.546,32C19.073,32 17.558,32.168 15.999,32.547C14.451,32.916 12.932,33.395 11.452,33.98C10.776,34.273 10.272,34.441 9.979,34.527C9.683,34.609 9.472,34.652 9.304,34.652C8.714,34.652 8.421,34.23 8.421,33.348L8.421,31.285C8.421,30.609 8.503,30.105 8.714,29.809C8.924,29.516 9.304,29.223 9.894,28.926C11.366,28.168 13.136,27.536 15.198,27.031C17.261,26.484 19.452,26.231 21.768,26.231C26.776,26.231 30.44,27.367 32.8,29.641C35.116,31.914 36.292,35.367 36.292,40L36.292,53.64L36.379,53.64ZM19.285,60.043C20.672,60.043 22.105,59.789 23.621,59.285C25.137,58.777 26.484,57.852 27.621,56.59C28.293,55.79 28.801,54.906 29.051,53.895C29.305,52.883 29.473,51.665 29.473,50.23L29.473,48.465C28.197,48.152 26.905,47.912 25.602,47.746C24.288,47.58 22.965,47.497 21.641,47.496C18.821,47.496 16.758,48.043 15.367,49.18C13.98,50.316 13.305,51.914 13.305,54.02C13.305,56 13.809,57.473 14.863,58.484C15.875,59.535 17.348,60.043 19.285,60.043ZM53.094,64.59C52.336,64.59 51.832,64.465 51.496,64.168C51.156,63.914 50.863,63.328 50.609,62.528L40.715,29.98C40.465,29.137 40.335,28.59 40.335,28.293C40.335,27.621 40.672,27.243 41.348,27.243L45.473,27.243C46.273,27.243 46.82,27.367 47.117,27.664C47.453,27.914 47.707,28.504 47.957,29.304L55.031,57.18L61.601,29.305C61.809,28.465 62.063,27.915 62.398,27.665C62.738,27.41 63.328,27.242 64.086,27.242L67.453,27.242C68.253,27.242 68.801,27.367 69.137,27.664C69.473,27.914 69.77,28.504 69.937,29.304L76.59,57.516L83.875,29.305C84.125,28.465 84.422,27.915 84.715,27.665C85.051,27.41 85.602,27.242 86.359,27.242L90.273,27.242C90.949,27.242 91.328,27.578 91.328,28.293C91.328,28.503 91.285,28.715 91.242,28.969C91.199,29.223 91.117,29.559 90.949,30.019L80.801,62.57C80.547,63.41 80.254,63.957 79.914,64.21C79.578,64.465 79.031,64.633 78.316,64.633L74.696,64.633C73.895,64.633 73.348,64.503 73.012,64.211C72.672,63.914 72.379,63.367 72.211,62.527L65.684,35.367L59.199,62.484C58.989,63.328 58.739,63.875 58.399,64.168C58.062,64.465 57.473,64.59 56.715,64.59L53.094,64.59ZM107.199,65.727C105.012,65.727 102.82,65.473 100.715,64.969C98.609,64.465 96.969,63.914 95.875,63.285C95.199,62.906 94.738,62.485 94.57,62.105C94.404,61.734 94.318,61.332 94.316,60.925L94.316,58.777C94.316,57.895 94.652,57.473 95.286,57.473C95.536,57.473 95.789,57.516 96.043,57.602C96.293,57.684 96.672,57.852 97.093,58.02C98.581,58.674 100.135,59.168 101.727,59.496C103.41,59.832 105.051,60 106.738,60C109.391,60 111.453,59.535 112.883,58.61C114.316,57.684 115.074,56.336 115.074,54.61C115.074,53.43 114.695,52.465 113.938,51.664C113.18,50.864 111.746,50.148 109.684,49.473L103.578,47.578C100.504,46.609 98.23,45.18 96.844,43.285C95.454,41.43 94.738,39.367 94.738,37.18C94.738,35.41 95.118,33.852 95.875,32.504C96.627,31.149 97.66,29.972 98.906,29.051C100.168,28.086 101.602,27.367 103.286,26.863C104.969,26.359 106.738,26.148 108.59,26.148C109.516,26.148 110.484,26.191 111.41,26.316C112.379,26.441 113.262,26.609 114.148,26.777C114.988,26.988 115.789,27.199 116.547,27.453C117.305,27.707 117.895,27.957 118.317,28.211C118.907,28.547 119.328,28.883 119.578,29.261C119.832,29.601 119.957,30.063 119.957,30.652L119.957,32.632C119.957,33.516 119.621,33.98 118.988,33.98C118.652,33.98 118.105,33.809 117.391,33.473C114.988,32.379 112.293,31.832 109.305,31.832C106.906,31.832 105.012,32.211 103.707,33.012C102.398,33.809 101.727,35.032 101.727,36.758C101.727,37.938 102.148,38.949 102.988,39.746C103.832,40.546 105.391,41.348 107.621,42.062L113.601,43.957C116.633,44.926 118.821,46.273 120.125,48C121.43,49.727 122.063,51.707 122.063,53.895C122.063,55.707 121.683,57.348 120.969,58.777C120.211,60.211 119.199,61.473 117.895,62.484C116.59,63.535 115.031,64.293 113.223,64.844C111.328,65.43 109.348,65.727 107.199,65.727Z" style="fill:rgb(37,47,62);fill-rule:nonzero;"/>
    </g>
    <g transform="matrix(4.73941,0,0,4.73941,296.675,146.677)">
        <path d="M118,73.348C113.568,73.411 108.336,74.4 104.379,77.18C103.156,78.063 103.367,79.242 104.715,79.074C109.223,78.527 119.155,77.348 120.925,79.621C122.695,81.851 118.949,91.241 117.262,95.411C116.758,96.671 117.852,97.18 118.988,96.211C126.398,89.98 128.336,76.969 126.82,75.074C126.063,74.149 122.432,73.284 118,73.348ZM1.63,75.859C0.703,75.975 0.283,77.095 1.262,77.98C17.77,92.882 39.621,101.852 63.875,101.852C81.18,101.852 101.305,96.422 115.156,86.192C117.429,84.504 115.453,81.938 113.136,82.988C97.602,89.558 80.715,92.758 65.348,92.758C42.57,92.758 20.548,86.485 2.695,76.125C2.305,75.894 1.94,75.821 1.631,75.859L1.63,75.859Z" style="fill:rgb(255,153,0);fill-rule:nonzero;"/>
    </g>
</svg>
